X:1
T: Spring Wedding
N:
C:Charles Bolton
S:
A:
O:
R:
M:4/4
K:G
I:speed 200
%W: A
% voice 1 (1 lines, 24 notes)
K:G
M:4/4
L:1/16
D4 G8 A4 |B8 G4 F4 |E4 F4 G4 A4 |D16 |B4 c4 d4 B4 |e8 d8 |e8 d4 B4 |c4 B4 A4 G4 |
%W:
% voice 1 (1 lines, 24 notes)
B4 c4 d4 B4 |e8 d8 |e8 d4 B4 |c4 A4 F4 E4 |D4 G8 A4 |B8 G4 F4 |G4 A4 B4 ^c4 |d16 |
%W: B
% voice 1 (1 lines, 25 notes)
d4 B8 d4 |c4 A8 c4 |B4 G8 B4 |A8 B4 c4 |d8 B4 d4 |c4 d4 e4 f4 |g4 d4 B4 G4 |E8 D8 |
%W:
% voice 1 (1 lines, 26 notes)
d4 B8 d4 |c4 B4 A4 c4 |B4 A4 B4 G4 |A8 B4 c4 |d8 g4 f4 |e4 c4 a4 g4 |f4 d4 b4 a4 |g16 ||
